build/images/fb-icons/settings.svg

<svg xmlns="http://www.w3.org/2000/svg" preserveAspectRatio="xMidYMid" width="21" height="21" viewBox="0 0 21 21"><defs><style>.cls-1{fill:#777;fill-rule:evenodd}</style></defs><path d="M19.917 12.704l-1.474.246c-.15.491-.351.97-.593 1.43l.869 1.22a1.3 1.3 0 0 1-.14 1.671l-1.308 1.307c-.246.246-.57.382-.917.382-.272 0-.535-.083-.754-.241l-1.215-.869a8.326 8.326 0 0 1-1.431.592l-.25 1.474A1.295 1.295 0 0 1 11.423 21H9.572a1.296 1.296 0 0 1-1.281-1.084l-.245-1.474a8.304 8.304 0 0 1-1.387-.57l-1.233.877a1.289 1.289 0 0 1-1.667-.14l-1.307-1.307a1.293 1.293 0 0 1-.14-1.672l.864-1.202a8.048 8.048 0 0 1-.601-1.425l-1.492-.255A1.296 1.296 0 0 1 0 11.467V9.62c0-.636.456-1.175 1.083-1.281l1.457-.245c.149-.496.342-.974.583-1.435l-.877-1.232a1.3 1.3 0 0 1 .14-1.672l1.312-1.307c.241-.246.57-.382.917-.382.272 0 .535.083.754.241l1.207.869a8.101 8.101 0 0 1 1.426-.601l.254-1.491A1.296 1.296 0 0 1 9.537 0h1.847c.636 0 1.176.456 1.281 1.084l.246 1.456a8.18 8.18 0 0 1 1.482.61l1.22-.869a1.29 1.29 0 0 1 1.667.14l1.307 1.308c.452.447.509 1.153.141 1.671l-.869 1.215c.241.457.439.935.592 1.43l1.474.251A1.279 1.279 0 0 1 21 9.577v1.846c0 .636-.456 1.176-1.083 1.281zm-9.415-6.738a4.534 4.534 0 0 0-4.531 4.532c0 2.5 2.031 4.531 4.531 4.531a4.534 4.534 0 0 0 4.532-4.531 4.535 4.535 0 0 0-4.532-4.532zm0 7.879a3.349 3.349 0 0 1-3.347-3.347c0-1.847 1.5-3.347 3.347-3.347s3.347 1.5 3.347 3.347-1.5 3.347-3.347 3.347z" class="cls-1"/></svg>

<svg xmlns="http://www.w3.org/2000/svg" xmlns:xlink="http://www.w3.org/1999/xlink" preserveAspectRatio="xMidYMid" width="21" height="21" viewBox="0 0 21 21">
  <defs>
    <style>
      .cls-1 {
        fill: #777;
        fill-rule: evenodd;
      }
    </style>
  </defs>
  <path d="M19.917,12.704 L18.443,12.950 C18.293,13.441 18.092,13.920 17.850,14.380 L18.719,15.600 C19.087,16.117 19.026,16.824 18.579,17.271 L17.271,18.578 C17.025,18.824 16.701,18.960 16.354,18.960 C16.082,18.960 15.819,18.877 15.600,18.719 L14.385,17.850 C13.928,18.091 13.450,18.289 12.954,18.442 L12.704,19.916 C12.599,20.544 12.060,21.000 11.423,21.000 L9.572,21.000 C8.936,21.000 8.396,20.544 8.291,19.916 L8.046,18.442 C7.567,18.293 7.102,18.104 6.659,17.872 L5.426,18.749 C5.207,18.907 4.948,18.991 4.676,18.991 C4.330,18.991 4.005,18.855 3.759,18.609 L2.452,17.302 C2.000,16.854 1.943,16.148 2.312,15.630 L3.176,14.428 C2.930,13.972 2.728,13.494 2.575,13.003 L1.083,12.748 C0.456,12.643 -0.000,12.103 -0.000,11.467 L-0.000,9.620 C-0.000,8.984 0.456,8.445 1.083,8.339 L2.540,8.094 C2.689,7.598 2.882,7.120 3.123,6.659 L2.246,5.427 C1.877,4.909 1.939,4.203 2.386,3.755 L3.698,2.448 C3.939,2.202 4.268,2.066 4.615,2.066 C4.887,2.066 5.150,2.149 5.369,2.307 L6.576,3.176 C7.032,2.930 7.510,2.729 8.002,2.575 L8.256,1.084 C8.361,0.456 8.901,-0.000 9.537,-0.000 L11.384,-0.000 C12.020,-0.000 12.560,0.456 12.665,1.084 L12.911,2.540 C13.424,2.693 13.920,2.900 14.393,3.150 L15.613,2.281 C15.832,2.123 16.091,2.040 16.363,2.040 C16.710,2.040 17.034,2.176 17.280,2.421 L18.587,3.729 C19.039,4.176 19.096,4.882 18.728,5.400 L17.859,6.615 C18.100,7.072 18.298,7.550 18.451,8.045 L19.925,8.296 C20.553,8.401 21.009,8.940 21.000,9.577 L21.000,11.423 C21.000,12.059 20.544,12.599 19.917,12.704 ZM10.502,5.966 C8.002,5.966 5.971,7.997 5.971,10.498 C5.971,12.998 8.002,15.029 10.502,15.029 C13.003,15.029 15.034,12.998 15.034,10.498 C15.034,7.997 13.003,5.966 10.502,5.966 ZM10.502,13.845 C8.655,13.845 7.155,12.345 7.155,10.498 C7.155,8.651 8.655,7.151 10.502,7.151 C12.349,7.151 13.849,8.651 13.849,10.498 C13.849,12.345 12.349,13.845 10.502,13.845 Z" class="cls-1"/>
</svg>
